X: 15520
T: Glenside, The
R: polka
M: 2/4
K: Edorian
|:B2 BA|FA DA|B2 BA|Bd ed|
B2 BA|FA DE|F/E/D AF|E2 E2:|
|:Be ef|ed BA|Be ef|ed Bc|
dc dB|AF DE|F/E/D AF|E2 E2:|

